X: 2
T: The Humours Of Tullycrine
R: hornpipe
M: 4/4
L: 1/8
K: Edor
BA|GEEF ~G3A|Beed (3BcB AF|GEEG FEDE|FAAB AFED|EDEF G3A|Beed B2 AF|G3B AFDF|GEED E2:|(3FGA|Be~e2 edBA|Be~e2 edBA|Bd~d2 dBAd|(3Bcd ce dBAF|EDEF G3A|Beed B2 AF|G3B AFDF|GEED E2 (3FGA ||Beed edBA|Beed edBA|Bddc dBAd|(3Bcd ce dBAF|EDEF G3A|Beed B2 AF|G3B AFDF|GEED E2|


Tune 980	Setting 14180

